; generated by PrusaSlicer 2.3.1+x64 on 2021-12-05 at 10:02:43 UTC

; 

; external perimeters extrusion width = 0.44mm
; perimeters extrusion width = 0.44mm
; infill extrusion width = 0.44mm
; solid infill extrusion width = 0.44mm
; top infill extrusion width = 0.44mm
; first layer extrusion width = 0.55mm

M107
M190 S78 ; set bed temperature and wait for it to be reached
M104 S237 ; set temperature
;TYPE:Custom
M85 S600
G21
G90
M82
M107
G28
G29

; WIPE NOIZZLE
G1 Y17 X27 F2400 ; move out of print volume
G1 Z0.2 F500 ; Z0
M400
G1 X87.0 E9 F500.0 ; start purge
G1 X127 E12.5 F500.0 ; finish purge line
M109 S237 ; set temperature and wait for it to be reached
G21 ; set units to millimeters
G90 ; use absolute coordinates
M82 ; use absolute distances for extrusion
G92 E0
;LAYER_CHANGE
;Z:0.2
;HEIGHT:0.2
G1 Z0.200 F7200.000
G1 E-1.50000 F1500.000
G92 E0
G1 X132.840 Y99.923 F7200.000
G1 E1.50000 F1500.000
;TYPE:Skirt
;WIDTH:0.55
G1 F1800.000
G1 X133.446 Y99.161 E1.53984
G1 X134.183 Y98.427 E1.58236
G1 X134.981 Y97.799 E1.62390
G1 X136.059 Y97.157 E1.67519
G1 X137.284 Y96.653 E1.72939
G1 X138.497 Y96.352 E1.78049
G1 X139.815 Y96.224 E1.83465
G1 X210.043 Y96.223 E4.70691
G1 X211.637 Y96.376 E4.77242
G1 X213.180 Y96.819 E4.83804
G1 X214.654 Y97.558 E4.90551
G1 X215.946 Y98.544 E4.97197
G1 X217.041 Y99.759 E5.03886
G1 X217.873 Y101.119 E5.10407
G1 X218.444 Y102.603 E5.16908
G1 X218.744 Y104.230 E5.23678
G1 X218.750 Y145.694 E6.93258
G1 X218.630 Y146.604 E6.97013
G1 X218.394 Y147.567 E7.01070
G1 X218.063 Y148.469 E7.05000
G1 X217.631 Y149.338 E7.08967
G1 X217.095 Y150.167 E7.13005
G1 X216.469 Y150.933 E7.17049
G1 X215.778 Y151.607 E7.21000
G1 X215.019 Y152.201 E7.24941
G1 X213.942 Y152.842 E7.30067
G1 X212.716 Y153.347 E7.35488
G1 X211.501 Y153.648 E7.40608
G1 X210.186 Y153.776 E7.46014
G1 X139.780 Y153.775 E10.33965
G1 X138.757 Y153.689 E10.38164
G1 X137.765 Y153.488 E10.42306
G1 X136.826 Y153.183 E10.46340
G1 X135.872 Y152.746 E10.50633
G1 X134.996 Y152.211 E10.54831
G1 X134.192 Y151.581 E10.59011
G1 X133.440 Y150.832 E10.63352
G1 X132.817 Y150.045 E10.67456
G1 X132.162 Y148.951 E10.72669
G1 X131.682 Y147.801 E10.77765
G1 X131.359 Y146.544 E10.83075
G1 X131.228 Y145.294 E10.88216
G1 X131.229 Y104.660 E12.54402
G1 X131.328 Y103.642 E12.58585
G1 X131.531 Y102.695 E12.62549
G1 X131.854 Y101.730 E12.66708
G1 X132.299 Y100.788 E12.70969
G1 X132.808 Y99.974 E12.74896
G1 X133.238 Y100.246 F7200.000
G1 F1800.000
G1 X133.887 Y99.430 E12.79159
G1 X134.559 Y98.772 E12.83005
G1 X135.301 Y98.194 E12.86851
G1 X136.349 Y97.579 E12.91823
G1 X137.458 Y97.130 E12.96714
G1 X138.667 Y96.838 E13.01801
G1 X139.837 Y96.731 E13.06607
G1 X210.043 Y96.730 E15.93740
G1 X211.548 Y96.876 E15.99925
G1 X213.003 Y97.294 E16.06119
G1 X214.394 Y97.993 E16.12485
G1 X215.614 Y98.927 E16.18769
G1 X216.643 Y100.074 E16.25072
G1 X217.426 Y101.360 E16.31227
G1 X217.980 Y102.827 E16.37644
G1 X218.241 Y104.304 E16.43777
G1 X218.246 Y145.632 E18.12805
G1 X217.911 Y147.412 E18.20213
G1 X217.596 Y148.271 E18.23953
G1 X217.188 Y149.091 E18.27699
G1 X216.682 Y149.873 E18.31509
G1 X216.085 Y150.601 E18.35362
G1 X215.432 Y151.236 E18.39086
G1 X214.699 Y151.806 E18.42881
G1 X213.650 Y152.421 E18.47853
G1 X212.542 Y152.870 E18.52744
G1 X211.333 Y153.162 E18.57831
G1 X210.163 Y153.269 E18.62636
G1 X139.793 Y153.268 E21.50442
G1 X138.822 Y153.186 E21.54429
G1 X137.880 Y152.994 E21.58361
G1 X136.988 Y152.702 E21.62197
G1 X136.077 Y152.281 E21.66305
G1 X135.255 Y151.774 E21.70255
G1 X134.488 Y151.165 E21.74259
G1 X133.775 Y150.445 E21.78401
G1 X133.174 Y149.669 E21.82417
G1 X132.588 Y148.668 E21.87161
G1 X132.148 Y147.597 E21.91898
G1 X131.853 Y146.426 E21.96835
G1 X131.734 Y145.256 E22.01648
G1 X131.736 Y104.681 E23.67592
G1 X131.830 Y103.718 E23.71551
G1 X132.021 Y102.824 E23.75291
G1 X132.329 Y101.908 E23.79243
G1 X132.753 Y101.014 E23.83289
G1 X133.206 Y100.296 E23.86760
G1 X133.634 Y100.567 F7200.000
G1 F1800.000
G1 X133.699 Y100.465 E23.87252
G1 X134.272 Y99.761 E23.90967
G1 X134.904 Y99.143 E23.94582
G1 X135.614 Y98.595 E23.98249
G1 X136.585 Y98.028 E24.02849
G1 X137.625 Y97.609 E24.07433
G1 X138.757 Y97.337 E24.12196
G1 X139.853 Y97.238 E24.16696
G1 X210.042 Y97.237 E27.03764
G1 X211.458 Y97.375 E27.09581
G1 X212.821 Y97.768 E27.15382
G1 X214.128 Y98.425 E27.21365
G1 X215.277 Y99.306 E27.27287
G1 X216.242 Y100.384 E27.33204
G1 X216.976 Y101.594 E27.38992
G1 X217.494 Y102.975 E27.45026
G1 X217.738 Y104.376 E27.50842
G1 X217.742 Y145.573 E29.19334
G1 X217.428 Y147.258 E29.26345
G1 X216.745 Y148.844 E29.33406
G1 X216.269 Y149.579 E29.36987
G1 X215.701 Y150.270 E29.40644
G1 X214.386 Y151.405 E29.47750
G1 X213.415 Y151.972 E29.52350
G1 X212.375 Y152.391 E29.56933
G1 X211.243 Y152.663 E29.61696
G1 X210.148 Y152.762 E29.66195
G1 X139.812 Y152.761 E32.53860
G1 X138.893 Y152.684 E32.57632
G1 X138.008 Y152.503 E32.61327
G1 X137.108 Y152.204 E32.65207
G1 X136.306 Y151.828 E32.68830
G1 X135.521 Y151.341 E32.72606
G1 X134.777 Y150.743 E32.76509
G1 X134.130 Y150.081 E32.80294
G1 X133.574 Y149.356 E32.84035
G1 X133.021 Y148.401 E32.88548
G1 X132.602 Y147.353 E32.93161
G1 X132.346 Y146.299 E32.97599
G1 X132.240 Y145.225 E33.02012
G1 X132.242 Y104.711 E34.67708
G1 X132.330 Y103.799 E34.71455
G1 X132.510 Y102.959 E34.74971
G1 X132.800 Y102.097 E34.78689
G1 X133.202 Y101.251 E34.82518
G1 X133.602 Y100.618 E34.85585
G1 E33.35585 F1500.000
G92 E0
G1 X135.924 Y98.997 F7200.000
G1 E1.50000 F1500.000
G1 F1800.000
G1 X136.825 Y98.475 E1.54256
G1 X137.791 Y98.088 E1.58511
G1 X138.846 Y97.836 E1.62949
G1 X139.868 Y97.745 E1.67145
G1 X210.042 Y97.744 E4.54149
G1 X211.391 Y97.878 E4.59693
G1 X212.706 Y98.267 E4.65302
G1 X213.891 Y98.875 E4.70748
G1 X214.943 Y99.688 E4.76187
G1 X215.843 Y100.698 E4.81718
G1 X216.528 Y101.832 E4.87139
G1 X217.010 Y103.127 E4.92789
G1 X217.235 Y104.439 E4.98235
G1 X217.237 Y145.521 E6.66256
G1 X216.943 Y147.110 E6.72866
G1 X216.302 Y148.597 E6.79485
G1 X215.318 Y149.937 E6.86284
G1 X214.075 Y151.004 E6.92982
G1 X213.175 Y151.525 E6.97238
G1 X212.204 Y151.914 E7.01516
G1 X211.148 Y152.165 E7.05955
G1 X210.126 Y152.255 E7.10149
G1 X139.830 Y152.254 E9.97653
G1 X138.964 Y152.182 E10.01209
G1 X138.136 Y152.013 E10.04665
G1 X137.289 Y151.731 E10.08316
G1 X136.545 Y151.381 E10.11677
G1 X135.808 Y150.923 E10.15227
G1 X135.108 Y150.359 E10.18902
G1 X134.507 Y149.741 E10.22429
G1 X133.978 Y149.049 E10.25991
G1 X133.472 Y148.167 E10.30149
G1 X133.081 Y147.186 E10.34470
G1 X132.844 Y146.203 E10.38604
G1 X132.747 Y145.201 E10.42721
G1 X132.749 Y104.738 E12.08210
G1 X132.999 Y103.093 E12.15015
G1 X133.270 Y102.286 E12.18498
G1 X133.649 Y101.489 E12.22108
G1 X134.116 Y100.753 E12.25672
G1 X134.655 Y100.092 E12.29162
G1 X135.879 Y99.036 E12.35773
G1 E10.85773 F1500.000
G92 E0
G1 X134.095 Y101.732 F7200.000
G1 E1.50000 F1500.000
G1 F1800.000
G1 X135.039 Y100.424 E1.56597
G1 X136.229 Y99.403 E1.63011
G1 X137.059 Y98.926 E1.66927
G1 X137.956 Y98.568 E1.70879
G1 X138.935 Y98.335 E1.74994
G1 X139.883 Y98.252 E1.78886
G1 X210.042 Y98.251 E4.65828
G1 X211.294 Y98.376 E4.70975
G1 X212.524 Y98.741 E4.76223
G1 X213.623 Y99.306 E4.81276
G1 X214.600 Y100.062 E4.86330
G1 X215.437 Y101.002 E4.91476
G1 X216.075 Y102.060 E4.96528
G1 X216.523 Y103.267 E5.01794
G1 X216.730 Y104.496 E5.06891
G1 X216.733 Y145.466 E6.74455
G1 X216.461 Y146.952 E6.80635
G1 X215.865 Y148.340 E6.86813
G1 X214.944 Y149.595 E6.93179
G1 X213.776 Y150.594 E6.99465
G1 X212.946 Y151.072 E7.03380
G1 X212.044 Y151.432 E7.07354
G1 X211.065 Y151.665 E7.11469
G1 X210.117 Y151.748 E7.15360
G1 X139.848 Y151.748 E10.02756
G1 X138.248 Y151.518 E10.09364
G1 X136.737 Y150.908 E10.16028
G1 X135.428 Y149.964 E10.22628
G1 X134.384 Y148.744 E10.29195
G1 X133.920 Y147.930 E10.33027
G1 X133.559 Y147.014 E10.37054
G1 X133.342 Y146.109 E10.40863
G1 X133.253 Y145.178 E10.44685
G1 X133.255 Y104.764 E12.09974
G1 X133.486 Y103.233 E12.16309
G1 X134.072 Y101.788 E12.22685
G1 X134.541 Y101.984 F7200.000
G1 F1800.000
G1 X135.442 Y100.735 E12.28986
G1 X136.587 Y99.774 E12.35096
G1 X137.342 Y99.352 E12.38636
G1 X138.146 Y99.040 E12.42161
G1 X139.034 Y98.833 E12.45891
G1 X139.903 Y98.759 E12.49458
G1 X210.042 Y98.758 E15.36317
G1 X211.198 Y98.874 E15.41070
G1 X212.332 Y99.210 E15.45910
G1 X213.346 Y99.731 E15.50571
G1 X214.246 Y100.425 E15.55217
G1 X215.028 Y101.301 E15.60023
G1 X215.619 Y102.282 E15.64706
G1 X216.035 Y103.406 E15.69607
G1 X216.226 Y104.561 E15.74395
G1 X216.232 Y145.349 E17.41216
G1 X215.983 Y146.780 E17.47157
G1 X215.422 Y148.093 E17.52996
G1 X214.548 Y149.276 E17.59011
G1 X213.414 Y150.226 E17.65062
G1 X212.658 Y150.648 E17.68602
G1 X211.854 Y150.960 E17.72128
G1 X210.966 Y151.167 E17.75857
G1 X210.097 Y151.241 E17.79424
G1 X139.864 Y151.241 E20.66670
G1 X138.353 Y151.021 E20.72914
G1 X136.957 Y150.450 E20.79085
G1 X135.774 Y149.594 E20.85056
G1 X134.795 Y148.446 E20.91228
G1 X134.374 Y147.704 E20.94717
G1 X134.041 Y146.860 E20.98427
G1 X133.843 Y146.030 E21.01915
G1 X133.761 Y145.180 E21.05409
G1 X133.762 Y104.761 E22.70719
G1 X134.001 Y103.275 E22.76873
G1 X134.518 Y102.039 E22.82352
G1 E21.32352 F1500.000
G92 E0
G1 X139.541 Y104.406 F7200.000
G1 E1.50000 F1500.000
;TYPE:Perimeter
G1 F1800.000
G1 X139.799 Y104.281 E1.51175
G1 X140.025 Y104.247 E1.52110
G1 X210.021 Y104.249 E4.38387
G1 X210.166 Y104.269 E4.38984
G1 X210.319 Y104.323 E4.39646
G1 X210.460 Y104.408 E4.40319
G1 X210.620 Y104.578 E4.41275
G1 X210.696 Y104.724 E4.41949
G1 X210.740 Y104.883 E4.42622
G1 X210.753 Y105.035 E4.43245
G1 X210.753 Y144.949 E6.06491
G1 X210.723 Y145.186 E6.07467
G1 X210.654 Y145.360 E6.08232
G1 X210.535 Y145.525 E6.09065
G1 X210.396 Y145.637 E6.09795
G1 X210.201 Y145.719 E6.10662
G1 X209.975 Y145.753 E6.11597
G1 X140.025 Y145.753 E8.97682
G1 X139.799 Y145.719 E8.98617
G1 X139.627 Y145.647 E8.99382
G1 X139.478 Y145.534 E9.00148
G1 X139.348 Y145.370 E9.01003
G1 X139.279 Y145.205 E9.01735
G1 X139.247 Y144.949 E9.02788
G1 X139.247 Y105.051 E10.65967
G1 X139.277 Y104.814 E10.66943
G1 X139.346 Y104.640 E10.67707
G1 X139.496 Y104.447 E10.68711
G1 X139.226 Y104.007 F7200.000
;TYPE:External perimeter
G1 F900.000
G1 X139.364 Y103.914 E10.69391
G1 X139.662 Y103.788 E10.70711
G1 X139.988 Y103.740 E10.72061
G1 X210.057 Y103.742 E13.58634
G1 X210.286 Y103.774 E13.59579
G1 X210.536 Y103.861 E13.60663
G1 X210.763 Y103.999 E13.61751
G1 X210.918 Y104.138 E13.62601
G1 X211.047 Y104.301 E13.63450
G1 X211.170 Y104.537 E13.64539
G1 X211.242 Y104.793 E13.65626
G1 X211.260 Y105.013 E13.66532
G1 X211.260 Y144.981 E15.29994
G1 X211.218 Y145.313 E15.31363
G1 X211.102 Y145.606 E15.32652
G1 X210.914 Y145.866 E15.33965
G1 X210.759 Y146.005 E15.34815
G1 X210.637 Y146.086 E15.35415
G1 X210.338 Y146.212 E15.36740
G1 X210.012 Y146.260 E15.38090
G1 X139.988 Y146.260 E18.24479
G1 X139.662 Y146.212 E18.25829
G1 X139.371 Y146.089 E18.27118
G1 X139.120 Y145.899 E18.28408
G1 X138.919 Y145.646 E18.29729
G1 X138.843 Y145.498 E18.30409
G1 X138.782 Y145.319 E18.31179
G1 X138.740 Y144.981 E18.32575
G1 X138.740 Y105.019 E19.96014
G1 X138.782 Y104.687 E19.97382
G1 X138.898 Y104.394 E19.98672
G1 X139.087 Y104.134 E19.99988
G1 X139.182 Y104.047 E20.00514
G1 X139.382 Y104.066 F7200.000
G1 E18.50514 F1500.000
G92 E0
G1 X209.921 Y104.401 F7200.000
G1 E1.50000 F1500.000
;TYPE:Solid infill
;WIDTH:0.552748
G1 X210.272 Y104.752 E1.52041
G1 X210.341 Y104.865 E1.52583
G1 X210.373 Y105.050 E1.53356
G1 X210.373 Y105.574 E1.55508
G1 X209.429 Y104.630 E1.60998
G1 X208.708 Y104.629 E1.63963
G1 X210.373 Y106.295 E1.73646
G1 X210.373 Y107.016 E1.76611
G1 X207.987 Y104.629 E1.90488
G1 X207.265 Y104.629 E1.93452
G1 X210.373 Y107.737 E2.11522
G1 X210.373 Y108.458 E2.14487
G1 X206.544 Y104.629 E2.36749
G1 X205.823 Y104.629 E2.39714
G1 X210.373 Y109.179 E2.66169
G1 X210.373 Y109.900 E2.69134
G1 X205.102 Y104.629 E2.99782
G1 X204.381 Y104.629 E3.02747
G1 X210.373 Y110.621 E3.37588
G1 X210.373 Y111.342 E3.40553
G1 X203.660 Y104.629 E3.79588
G1 X202.939 Y104.629 E3.82552
G1 X210.373 Y112.063 E4.25780
G1 X210.373 Y112.784 E4.28745
G1 X202.218 Y104.629 E4.76165
G1 X201.497 Y104.629 E4.79130
G1 X210.373 Y113.505 E5.30743
G1 X210.373 Y114.226 E5.33708
G1 X200.776 Y104.629 E5.89514
G1 X200.055 Y104.629 E5.92479
G1 X210.373 Y114.947 E6.52478
G1 X210.373 Y115.668 E6.55443
G1 X199.334 Y104.629 E7.19636
G1 X198.613 Y104.629 E7.22600
G1 X210.373 Y116.389 E7.90986
G1 X210.373 Y117.110 E7.93951
G1 X197.892 Y104.629 E8.66529
G1 X197.171 Y104.629 E8.69494
G1 X210.373 Y117.831 E9.46265
G1 X210.373 Y118.552 E9.49230
G1 X196.450 Y104.629 E10.30194
G1 X195.729 Y104.629 E10.33159
G1 X210.373 Y119.273 E11.18316
G1 X210.373 Y119.994 E11.21281
G1 X195.008 Y104.629 E12.10631
G1 X194.287 Y104.629 E12.13596
G1 X210.373 Y120.715 E13.07140
G1 X210.373 Y121.436 E13.10104
G1 X193.566 Y104.629 E14.07841
G1 X192.845 Y104.629 E14.10806
G1 X210.373 Y122.157 E15.12735
G1 X210.373 Y122.878 E15.15700
G1 X192.124 Y104.629 E16.21822
G1 X191.403 Y104.629 E16.24787
G1 X210.373 Y123.599 E17.35102
G1 X210.373 Y124.320 E17.38067
G1 X190.682 Y104.629 E18.52575
G1 X189.961 Y104.629 E18.55540
G1 X210.373 Y125.041 E19.74242
G1 X210.373 Y125.762 E19.77206
G1 X189.240 Y104.629 E21.00101
G1 X188.519 Y104.629 E21.03066
G1 X210.373 Y126.483 E22.30153
G1 X210.373 Y127.204 E22.33118
G1 X187.798 Y104.629 E23.64398
G1 X187.077 Y104.629 E23.67363
G1 X210.373 Y127.925 E25.02836
G1 X210.373 Y128.646 E25.05801
G1 X186.356 Y104.629 E26.45467
G1 X185.635 Y104.629 E26.48432
G1 X210.373 Y129.367 E27.92291
G1 X210.373 Y130.088 E27.95256
G1 X184.914 Y104.629 E29.43308
G1 X184.193 Y104.629 E29.46273
G1 X210.373 Y130.809 E30.98519
G1 X210.373 Y131.530 E31.01483
G1 X183.472 Y104.629 E32.57922
G1 X182.751 Y104.629 E32.60887
G1 X210.373 Y132.251 E34.21518
G1 X210.373 Y132.972 E34.24483
G1 X182.030 Y104.629 E35.89307
G1 X181.309 Y104.629 E35.92272
G1 X210.373 Y133.693 E37.61289
G1 X210.373 Y134.414 E37.64254
G1 X180.588 Y104.629 E39.37464
G1 X179.867 Y104.629 E39.40429
G1 X210.373 Y135.135 E41.17832
G1 X210.373 Y135.856 E41.20797
G1 X179.146 Y104.629 E43.02393
G1 X178.424 Y104.629 E43.05358
G1 X210.373 Y136.577 E44.91147
G1 X210.373 Y137.298 E44.94112
G1 X177.703 Y104.629 E46.84095
G1 X176.982 Y104.629 E46.87059
G1 X210.373 Y138.019 E48.81235
G1 X210.373 Y138.740 E48.84199
G1 X176.261 Y104.629 E50.82568
G1 X175.540 Y104.629 E50.85533
G1 X210.373 Y139.461 E52.88094
G1 X210.373 Y140.182 E52.91059
G1 X174.819 Y104.629 E54.97813
G1 X174.098 Y104.629 E55.00778
G1 X210.373 Y140.903 E57.11725
G1 X210.373 Y141.624 E57.14690
G1 X173.377 Y104.629 E59.29830
G1 X172.656 Y104.629 E59.32795
G1 X210.373 Y142.345 E61.52128
G1 X210.373 Y143.066 E61.55093
G1 X171.935 Y104.629 E63.78619
G1 X171.214 Y104.628 E63.81584
G1 X210.373 Y143.787 E66.09303
G1 X210.373 Y144.508 E66.12268
G1 X170.493 Y104.628 E68.44180
G1 X169.772 Y104.628 E68.47145
G1 X210.319 Y145.175 E70.82936
G1 X210.199 Y145.308 E70.83672
G1 X210.098 Y145.350 E70.84122
G1 X209.795 Y145.372 E70.85370
G1 X169.051 Y104.628 E73.22309
G1 X168.330 Y104.628 E73.25274
G1 X209.074 Y145.372 E75.62214
G1 X208.353 Y145.372 E75.65179
G1 X167.609 Y104.628 E78.02118
G1 X166.888 Y104.628 E78.05083
G1 X207.632 Y145.372 E80.42023
G1 X206.911 Y145.372 E80.44988
G1 X166.167 Y104.628 E82.81928
G1 X165.446 Y104.628 E82.84892
G1 X206.190 Y145.372 E85.21832
G1 X205.469 Y145.372 E85.24797
G1 X164.725 Y104.628 E87.61737
G1 X164.004 Y104.628 E87.64702
G1 X204.748 Y145.372 E90.01643
G1 X204.027 Y145.372 E90.04607
G1 X163.283 Y104.628 E92.41548
G1 X162.562 Y104.628 E92.44513
G1 X203.306 Y145.372 E94.81453
G1 X202.585 Y145.372 E94.84418
G1 X161.841 Y104.628 E97.21358
G1 X161.120 Y104.628 E97.24323
G1 X201.864 Y145.372 E99.61264
G1 X201.143 Y145.372 E99.64229
G1 X160.399 Y104.628 E102.01170
G1 X159.678 Y104.628 E102.04134
G1 X200.422 Y145.372 E104.41075
G1 X199.701 Y145.372 E104.44040
G1 X158.957 Y104.628 E106.80981
G1 X158.236 Y104.628 E106.83946
G1 X198.980 Y145.372 E109.20887
G1 X198.259 Y145.372 E109.23852
G1 X157.515 Y104.628 E111.60793
G1 X156.794 Y104.628 E111.63758
G1 X197.538 Y145.372 E114.00700
G1 X196.817 Y145.372 E114.03664
