; Generated at 2021-11-14 16:45:17.696138

G21

; Printing box lid

G01 X0 Y0 Z0
G01 X50 Y0 Z0

G01 X50 Y0.5 Z0
G01 X0 Y0.5 Z0

G01 X0 Y1.0 Z0
G01 X50 Y1.0 Z0

G01 X50 Y1.5 Z0
G01 X0 Y1.5 Z0

G01 X0 Y2.0 Z0
G01 X50 Y2.0 Z0

G01 X50 Y2.5 Z0
G01 X0 Y2.5 Z0

G01 X0 Y3.0 Z0
G01 X50 Y3.0 Z0

G01 X50 Y3.5 Z0
G01 X0 Y3.5 Z0

G01 X0 Y4.0 Z0
G01 X50 Y4.0 Z0

G01 X50 Y4.5 Z0
G01 X0 Y4.5 Z0

G01 X0 Y5.0 Z0
G01 X50 Y5.0 Z0

G01 X50 Y5.5 Z0
G01 X0 Y5.5 Z0

G01 X0 Y6.0 Z0
G01 X50 Y6.0 Z0

G01 X50 Y6.5 Z0
G01 X0 Y6.5 Z0

G01 X0 Y7.0 Z0
G01 X50 Y7.0 Z0

G01 X50 Y7.5 Z0
G01 X0 Y7.5 Z0

G01 X0 Y8.0 Z0
G01 X50 Y8.0 Z0

G01 X50 Y8.5 Z0
G01 X0 Y8.5 Z0

G01 X0 Y9.0 Z0
G01 X50 Y9.0 Z0

G01 X50 Y9.5 Z0
G01 X0 Y9.5 Z0

; Printing box

; 0

G01 X0 Y0 Z0
G01 X50 Y0 Z0
G01 X50 Y10 Z0
G01 X0 Y10 Z0
G01 X0 Y0 Z0

; 0.5

G01 X0 Y0 Z0.5
G01 X50 Y0 Z0.5
G01 X50 Y10 Z0.5
G01 X0 Y10 Z0.5
G01 X0 Y0 Z0.5

; 1.0

G01 X0 Y0 Z1.0
G01 X50 Y0 Z1.0
G01 X50 Y10 Z1.0
G01 X0 Y10 Z1.0
G01 X0 Y0 Z1.0

; 1.5

G01 X0 Y0 Z1.5
G01 X50 Y0 Z1.5
G01 X50 Y10 Z1.5
G01 X0 Y10 Z1.5
G01 X0 Y0 Z1.5

; 2.0

G01 X0 Y0 Z2.0
G01 X50 Y0 Z2.0
G01 X50 Y10 Z2.0
G01 X0 Y10 Z2.0
G01 X0 Y0 Z2.0

; 2.5

G01 X0 Y0 Z2.5
G01 X50 Y0 Z2.5
G01 X50 Y10 Z2.5
G01 X0 Y10 Z2.5
G01 X0 Y0 Z2.5

; 3.0

G01 X0 Y0 Z3.0
G01 X50 Y0 Z3.0
G01 X50 Y10 Z3.0
G01 X0 Y10 Z3.0
G01 X0 Y0 Z3.0

; 3.5

G01 X0 Y0 Z3.5
G01 X50 Y0 Z3.5
G01 X50 Y10 Z3.5
G01 X0 Y10 Z3.5
G01 X0 Y0 Z3.5

; 4.0

G01 X0 Y0 Z4.0
G01 X50 Y0 Z4.0
G01 X50 Y10 Z4.0
G01 X0 Y10 Z4.0
G01 X0 Y0 Z4.0

; 4.5

G01 X0 Y0 Z4.5
G01 X50 Y0 Z4.5
G01 X50 Y10 Z4.5
G01 X0 Y10 Z4.5
G01 X0 Y0 Z4.5

; 5.0

G01 X0 Y0 Z5.0
G01 X50 Y0 Z5.0
G01 X50 Y10 Z5.0
G01 X0 Y10 Z5.0
G01 X0 Y0 Z5.0

; 5.5

G01 X0 Y0 Z5.5
G01 X50 Y0 Z5.5
G01 X50 Y10 Z5.5
G01 X0 Y10 Z5.5
G01 X0 Y0 Z5.5

; 6.0

G01 X0 Y0 Z6.0
G01 X50 Y0 Z6.0
G01 X50 Y10 Z6.0
G01 X0 Y10 Z6.0
G01 X0 Y0 Z6.0

; 6.5

G01 X0 Y0 Z6.5
G01 X50 Y0 Z6.5
G01 X50 Y10 Z6.5
G01 X0 Y10 Z6.5
G01 X0 Y0 Z6.5

; 7.0

G01 X0 Y0 Z7.0
G01 X50 Y0 Z7.0
G01 X50 Y10 Z7.0
G01 X0 Y10 Z7.0
G01 X0 Y0 Z7.0

; 7.5

G01 X0 Y0 Z7.5
G01 X50 Y0 Z7.5
G01 X50 Y10 Z7.5
G01 X0 Y10 Z7.5
G01 X0 Y0 Z7.5

; 8.0

G01 X0 Y0 Z8.0
G01 X50 Y0 Z8.0
G01 X50 Y10 Z8.0
G01 X0 Y10 Z8.0
G01 X0 Y0 Z8.0

; 8.5

G01 X0 Y0 Z8.5
G01 X50 Y0 Z8.5
G01 X50 Y10 Z8.5
G01 X0 Y10 Z8.5
G01 X0 Y0 Z8.5

; 9.0

G01 X0 Y0 Z9.0
G01 X50 Y0 Z9.0
G01 X50 Y10 Z9.0
G01 X0 Y10 Z9.0
G01 X0 Y0 Z9.0

; 9.5

G01 X0 Y0 Z9.5
G01 X50 Y0 Z9.5
G01 X50 Y10 Z9.5
G01 X0 Y10 Z9.5
G01 X0 Y0 Z9.5

; 10.0

G01 X0 Y0 Z10.0
G01 X50 Y0 Z10.0
G01 X50 Y10 Z10.0
G01 X0 Y10 Z10.0
G01 X0 Y0 Z10.0

; Printing box lid

G01 X0 Y0 Z10
G01 X50 Y0 Z10

G01 X50 Y0.5 Z10
G01 X0 Y0.5 Z10

G01 X0 Y1.0 Z10
G01 X50 Y1.0 Z10

G01 X50 Y1.5 Z10
G01 X0 Y1.5 Z10

G01 X0 Y2.0 Z10
G01 X50 Y2.0 Z10

G01 X50 Y2.5 Z10
G01 X0 Y2.5 Z10

G01 X0 Y3.0 Z10
G01 X50 Y3.0 Z10

G01 X50 Y3.5 Z10
G01 X0 Y3.5 Z10

G01 X0 Y4.0 Z10
G01 X50 Y4.0 Z10

G01 X50 Y4.5 Z10
G01 X0 Y4.5 Z10

G01 X0 Y5.0 Z10
G01 X50 Y5.0 Z10

G01 X50 Y5.5 Z10
G01 X0 Y5.5 Z10

G01 X0 Y6.0 Z10
G01 X50 Y6.0 Z10

G01 X50 Y6.5 Z10
G01 X0 Y6.5 Z10

G01 X0 Y7.0 Z10
G01 X50 Y7.0 Z10

G01 X50 Y7.5 Z10
G01 X0 Y7.5 Z10

G01 X0 Y8.0 Z10
G01 X50 Y8.0 Z10

G01 X50 Y8.5 Z10
G01 X0 Y8.5 Z10

G01 X0 Y9.0 Z10
G01 X50 Y9.0 Z10

G01 X50 Y9.5 Z10
G01 X0 Y9.5 Z10

; Printing figures

; 10.5

G00 X5 Y0 Z10.5
G03 X10 Y5 I0 J5
G03 X10 Y5 I-5 J0

G00 X20.025 Y5 Z10.5
G02 X20.025 Y5 I4.975 J0
G02 X29.975 Y5 I4.975 J0

G00 X40 Y5 Z10.5
G03 X40 Y5 I5 J0
G03 X45 Y0 I5 J0

; 11.0

G00 X5 Y0 Z11.0
G03 X10 Y5 I0 J5
G03 X10 Y5 I-5 J0

G00 X20.05 Y5 Z11.0
G02 X20.05 Y5 I4.95 J0
G02 X29.95 Y5 I4.95 J0

G00 X40 Y5 Z11.0
G03 X40 Y5 I5 J0
G03 X45 Y0 I5 J0

; 11.5

G00 X5 Y0 Z11.5
G03 X10 Y5 I0 J5
G03 X10 Y5 I-5 J0

G00 X20.075 Y5 Z11.5
G02 X20.075 Y5 I4.925 J0
G02 X29.925 Y5 I4.925 J0

G00 X40 Y5 Z11.5
G03 X40 Y5 I5 J0
G03 X45 Y0 I5 J0

; 12.0

G00 X5 Y0 Z12.0
G03 X10 Y5 I0 J5
G03 X10 Y5 I-5 J0

G00 X20.1 Y5 Z12.0
G02 X20.1 Y5 I4.9 J0
G02 X29.9 Y5 I4.9 J0

G00 X40 Y5 Z12.0
G03 X40 Y5 I5 J0
G03 X45 Y0 I5 J0

; 12.5

G00 X5 Y0 Z12.5
G03 X10 Y5 I0 J5
G03 X10 Y5 I-5 J0

G00 X20.125 Y5 Z12.5
G02 X20.125 Y5 I4.875 J0
G02 X29.875 Y5 I4.875 J0

G00 X40 Y5 Z12.5
G03 X40 Y5 I5 J0
G03 X45 Y0 I5 J0

; 13.0

G00 X5 Y0 Z13.0
G03 X10 Y5 I0 J5
G03 X10 Y5 I-5 J0

G00 X20.15 Y5 Z13.0
G02 X20.15 Y5 I4.85 J0
G02 X29.85 Y5 I4.85 J0

G00 X40 Y5 Z13.0
G03 X40 Y5 I5 J0
G03 X45 Y0 I5 J0

; 13.5

G00 X5 Y0 Z13.5
G03 X10 Y5 I0 J5
G03 X10 Y5 I-5 J0

G00 X20.175 Y5 Z13.5
G02 X20.175 Y5 I4.825 J0
G02 X29.825 Y5 I4.825 J0

G00 X40 Y5 Z13.5
G03 X40 Y5 I5 J0
G03 X45 Y0 I5 J0

; 14.0

G00 X5 Y0 Z14.0
G03 X10 Y5 I0 J5
G03 X10 Y5 I-5 J0

G00 X20.2 Y5 Z14.0
G02 X20.2 Y5 I4.8 J0
G02 X29.8 Y5 I4.8 J0

G00 X40 Y5 Z14.0
G03 X40 Y5 I5 J0
G03 X45 Y0 I5 J0

; 14.5

G00 X5 Y0 Z14.5
G03 X10 Y5 I0 J5
G03 X10 Y5 I-5 J0

G00 X20.225 Y5 Z14.5
G02 X20.225 Y5 I4.775 J0
G02 X29.775 Y5 I4.775 J0

G00 X40 Y5 Z14.5
G03 X40 Y5 I5 J0
G03 X45 Y0 I5 J0

; 15.0

G00 X5 Y0 Z15.0
G03 X10 Y5 I0 J5
G03 X10 Y5 I-5 J0

G00 X20.25 Y5 Z15.0
G02 X20.25 Y5 I4.75 J0
G02 X29.75 Y5 I4.75 J0

G00 X40 Y5 Z15.0
G03 X40 Y5 I5 J0
G03 X45 Y0 I5 J0

; 15.5

G00 X5 Y0 Z15.5
G03 X10 Y5 I0 J5
G03 X10 Y5 I-5 J0

G00 X20.275 Y5 Z15.5
G02 X20.275 Y5 I4.725 J0
G02 X29.725 Y5 I4.725 J0

G00 X40 Y5 Z15.5
G03 X40 Y5 I5 J0
G03 X45 Y0 I5 J0

; 16.0

G00 X5 Y0 Z16.0
G03 X10 Y5 I0 J5
G03 X10 Y5 I-5 J0

G00 X20.3 Y5 Z16.0
G02 X20.3 Y5 I4.7 J0
G02 X29.7 Y5 I4.7 J0

G00 X40 Y5 Z16.0
G03 X40 Y5 I5 J0
G03 X45 Y0 I5 J0

; 16.5

G00 X5 Y0 Z16.5
G03 X10 Y5 I0 J5
G03 X10 Y5 I-5 J0

G00 X20.325 Y5 Z16.5
G02 X20.325 Y5 I4.675 J0
G02 X29.675 Y5 I4.675 J0

G00 X40 Y5 Z16.5
G03 X40 Y5 I5 J0
G03 X45 Y0 I5 J0

; 17.0

G00 X5 Y0 Z17.0
G03 X10 Y5 I0 J5
G03 X10 Y5 I-5 J0

G00 X20.35 Y5 Z17.0
G02 X20.35 Y5 I4.65 J0
G02 X29.65 Y5 I4.65 J0

G00 X40 Y5 Z17.0
G03 X40 Y5 I5 J0
G03 X45 Y0 I5 J0

; 17.5

G00 X5 Y0 Z17.5
G03 X10 Y5 I0 J5
G03 X10 Y5 I-5 J0

G00 X20.375 Y5 Z17.5
G02 X20.375 Y5 I4.625 J0
G02 X29.625 Y5 I4.625 J0

G00 X40 Y5 Z17.5
G03 X40 Y5 I5 J0
G03 X45 Y0 I5 J0

; 18.0

G00 X5 Y0 Z18.0
G03 X10 Y5 I0 J5
G03 X10 Y5 I-5 J0

G00 X20.4 Y5 Z18.0
G02 X20.4 Y5 I4.6 J0
G02 X29.6 Y5 I4.6 J0

G00 X40 Y5 Z18.0
G03 X40 Y5 I5 J0
G03 X45 Y0 I5 J0

; 18.5

G00 X5 Y0 Z18.5
G03 X10 Y5 I0 J5
G03 X10 Y5 I-5 J0

G00 X20.425 Y5 Z18.5
G02 X20.425 Y5 I4.575 J0
G02 X29.575 Y5 I4.575 J0

G00 X40 Y5 Z18.5
G03 X40 Y5 I5 J0
G03 X45 Y0 I5 J0

; 19.0

G00 X5 Y0 Z19.0
G03 X10 Y5 I0 J5
G03 X10 Y5 I-5 J0

G00 X20.45 Y5 Z19.0
G02 X20.45 Y5 I4.55 J0
G02 X29.55 Y5 I4.55 J0

G00 X40 Y5 Z19.0
G03 X40 Y5 I5 J0
G03 X45 Y0 I5 J0

; 19.5

G00 X5 Y0 Z19.5
G03 X10 Y5 I0 J5
G03 X10 Y5 I-5 J0

G00 X20.475 Y5 Z19.5
G02 X20.475 Y5 I4.525 J0
G02 X29.525 Y5 I4.525 J0

G00 X40 Y5 Z19.5
G03 X40 Y5 I5 J0
G03 X45 Y0 I5 J0

; 20.0

G00 X5 Y0 Z20.0
G03 X10 Y5 I0 J5
G03 X10 Y5 I-5 J0

G00 X20.5 Y5 Z20.0
G02 X20.5 Y5 I4.5 J0
G02 X29.5 Y5 I4.5 J0

G00 X40 Y5 Z20.0
G03 X40 Y5 I5 J0
G03 X45 Y0 I5 J0

; 20.5

G00 X5 Y0 Z20.5
G03 X10 Y5 I0 J5
G03 X10 Y5 I-5 J0

G00 X20.525 Y5 Z20.5
G02 X20.525 Y5 I4.475 J0
G02 X29.475 Y5 I4.475 J0

G00 X40 Y5 Z20.5
G03 X40 Y5 I5 J0
G03 X45 Y0 I5 J0

; 21.0

G00 X5 Y0 Z21.0
G03 X10 Y5 I0 J5
G03 X10 Y5 I-5 J0

G00 X20.55 Y5 Z21.0
G02 X20.55 Y5 I4.45 J0
G02 X29.45 Y5 I4.45 J0

G00 X40 Y5 Z21.0
G03 X40 Y5 I5 J0
G03 X45 Y0 I5 J0

; 21.5

G00 X5 Y0 Z21.5
G03 X10 Y5 I0 J5
G03 X10 Y5 I-5 J0

G00 X20.575 Y5 Z21.5
G02 X20.575 Y5 I4.425 J0
G02 X29.425 Y5 I4.425 J0

G00 X40 Y5 Z21.5
G03 X40 Y5 I5 J0
G03 X45 Y0 I5 J0

; 22.0

G00 X5 Y0 Z22.0
G03 X10 Y5 I0 J5
G03 X10 Y5 I-5 J0

G00 X20.6 Y5 Z22.0
G02 X20.6 Y5 I4.4 J0
G02 X29.4 Y5 I4.4 J0

G00 X40 Y5 Z22.0
G03 X40 Y5 I5 J0
G03 X45 Y0 I5 J0

; 22.5

G00 X5 Y0 Z22.5
G03 X10 Y5 I0 J5
G03 X10 Y5 I-5 J0

G00 X20.625 Y5 Z22.5
G02 X20.625 Y5 I4.375 J0
G02 X29.375 Y5 I4.375 J0

G00 X40 Y5 Z22.5
G03 X40 Y5 I5 J0
G03 X45 Y0 I5 J0

; 23.0

G00 X5 Y0 Z23.0
G03 X10 Y5 I0 J5
G03 X10 Y5 I-5 J0

G00 X20.65 Y5 Z23.0
G02 X20.65 Y5 I4.35 J0
G02 X29.35 Y5 I4.35 J0

G00 X40 Y5 Z23.0
G03 X40 Y5 I5 J0
G03 X45 Y0 I5 J0

; 23.5

G00 X5 Y0 Z23.5
G03 X10 Y5 I0 J5
G03 X10 Y5 I-5 J0

G00 X20.675 Y5 Z23.5
G02 X20.675 Y5 I4.325 J0
G02 X29.325 Y5 I4.325 J0

G00 X40 Y5 Z23.5
G03 X40 Y5 I5 J0
G03 X45 Y0 I5 J0

; 24.0

G00 X5 Y0 Z24.0
G03 X10 Y5 I0 J5
G03 X10 Y5 I-5 J0

G00 X20.7 Y5 Z24.0
G02 X20.7 Y5 I4.3 J0
G02 X29.3 Y5 I4.3 J0

G00 X40 Y5 Z24.0
G03 X40 Y5 I5 J0
G03 X45 Y0 I5 J0

; 24.5

G00 X5 Y0 Z24.5
G03 X10 Y5 I0 J5
G03 X10 Y5 I-5 J0

G00 X20.725 Y5 Z24.5
G02 X20.725 Y5 I4.275 J0
G02 X29.275 Y5 I4.275 J0

G00 X40 Y5 Z24.5
G03 X40 Y5 I5 J0
G03 X45 Y0 I5 J0

; 25.0

G00 X5 Y0 Z25.0
G03 X10 Y5 I0 J5
G03 X10 Y5 I-5 J0

G00 X20.75 Y5 Z25.0
G02 X20.75 Y5 I4.25 J0
G02 X29.25 Y5 I4.25 J0

G00 X40 Y5 Z25.0
G03 X40 Y5 I5 J0
G03 X45 Y0 I5 J0

; 25.5

G00 X5 Y0 Z25.5
G03 X10 Y5 I0 J5
G03 X10 Y5 I-5 J0

G00 X20.775 Y5 Z25.5
G02 X20.775 Y5 I4.225 J0
G02 X29.225 Y5 I4.225 J0

G00 X40 Y5 Z25.5
G03 X40 Y5 I5 J0
G03 X45 Y0 I5 J0

; 26.0

G00 X5 Y0 Z26.0
G03 X10 Y5 I0 J5
G03 X10 Y5 I-5 J0

G00 X20.8 Y5 Z26.0
G02 X20.8 Y5 I4.2 J0
G02 X29.2 Y5 I4.2 J0

G00 X40 Y5 Z26.0
G03 X40 Y5 I5 J0
G03 X45 Y0 I5 J0

; 26.5

G00 X5 Y0 Z26.5
G03 X10 Y5 I0 J5
G03 X10 Y5 I-5 J0

G00 X20.825 Y5 Z26.5
G02 X20.825 Y5 I4.175 J0
G02 X29.175 Y5 I4.175 J0

G00 X40 Y5 Z26.5
G03 X40 Y5 I5 J0
G03 X45 Y0 I5 J0

; 27.0

G00 X5 Y0 Z27.0
G03 X10 Y5 I0 J5
G03 X10 Y5 I-5 J0

G00 X20.85 Y5 Z27.0
G02 X20.85 Y5 I4.15 J0
G02 X29.15 Y5 I4.15 J0

G00 X40 Y5 Z27.0
G03 X40 Y5 I5 J0
G03 X45 Y0 I5 J0

; 27.5

G00 X5 Y0 Z27.5
G03 X10 Y5 I0 J5
G03 X10 Y5 I-5 J0

G00 X20.875 Y5 Z27.5
G02 X20.875 Y5 I4.125 J0
G02 X29.125 Y5 I4.125 J0

G00 X40 Y5 Z27.5
G03 X40 Y5 I5 J0
G03 X45 Y0 I5 J0

; 28.0

G00 X5 Y0 Z28.0
G03 X10 Y5 I0 J5
G03 X10 Y5 I-5 J0

G00 X20.9 Y5 Z28.0
G02 X20.9 Y5 I4.1 J0
G02 X29.1 Y5 I4.1 J0

G00 X40 Y5 Z28.0
G03 X40 Y5 I5 J0
G03 X45 Y0 I5 J0

; 28.5

G00 X5 Y0 Z28.5
G03 X10 Y5 I0 J5
G03 X10 Y5 I-5 J0

G00 X20.925 Y5 Z28.5
G02 X20.925 Y5 I4.075 J0
G02 X29.075 Y5 I4.075 J0

G00 X40 Y5 Z28.5
G03 X40 Y5 I5 J0
G03 X45 Y0 I5 J0

; 29.0

G00 X5 Y0 Z29.0
G03 X10 Y5 I0 J5
G03 X10 Y5 I-5 J0

G00 X20.95 Y5 Z29.0
G02 X20.95 Y5 I4.05 J0
G02 X29.05 Y5 I4.05 J0

G00 X40 Y5 Z29.0
G03 X40 Y5 I5 J0
G03 X45 Y0 I5 J0

; 29.5

G00 X5 Y0 Z29.5
G03 X10 Y5 I0 J5
G03 X10 Y5 I-5 J0

G00 X20.975 Y5 Z29.5
G02 X20.975 Y5 I4.025 J0
G02 X29.025 Y5 I4.025 J0

G00 X40 Y5 Z29.5
G03 X40 Y5 I5 J0
G03 X45 Y0 I5 J0

; 30.0

G00 X5 Y0 Z30.0
G03 X10 Y5 I0 J5
G03 X10 Y5 I-5 J0

G00 X21.0 Y5 Z30.0
G02 X21.0 Y5 I4.0 J0
G02 X29.0 Y5 I4.0 J0

G00 X40 Y5 Z30.0
G03 X40 Y5 I5 J0
G03 X45 Y0 I5 J0

; 30.5

G00 X5 Y0 Z30.5
G03 X10 Y5 I0 J5
G03 X10 Y5 I-5 J0

G00 X21.025 Y5 Z30.5
G02 X21.025 Y5 I3.975 J0
G02 X28.975 Y5 I3.975 J0

G00 X40 Y5 Z30.5
G03 X40 Y5 I5 J0
G03 X45 Y0 I5 J0

; 31.0

G00 X5 Y0 Z31.0
G03 X10 Y5 I0 J5
G03 X10 Y5 I-5 J0

G00 X21.05 Y5 Z31.0
G02 X21.05 Y5 I3.95 J0
G02 X28.95 Y5 I3.95 J0

G00 X40 Y5 Z31.0
G03 X40 Y5 I5 J0
G03 X45 Y0 I5 J0

; 31.5

G00 X5 Y0 Z31.5
G03 X10 Y5 I0 J5
G03 X10 Y5 I-5 J0

G00 X21.075 Y5 Z31.5
G02 X21.075 Y5 I3.925 J0
G02 X28.925 Y5 I3.925 J0

G00 X40 Y5 Z31.5
G03 X40 Y5 I5 J0
G03 X45 Y0 I5 J0

; 32.0

G00 X5 Y0 Z32.0
G03 X10 Y5 I0 J5
G03 X10 Y5 I-5 J0

G00 X21.1 Y5 Z32.0
G02 X21.1 Y5 I3.9 J0
G02 X28.9 Y5 I3.9 J0

G00 X40 Y5 Z32.0
G03 X40 Y5 I5 J0
G03 X45 Y0 I5 J0

; 32.5

G00 X5 Y0 Z32.5
G03 X10 Y5 I0 J5
G03 X10 Y5 I-5 J0

G00 X21.125 Y5 Z32.5
G02 X21.125 Y5 I3.875 J0
G02 X28.875 Y5 I3.875 J0

G00 X40 Y5 Z32.5
G03 X40 Y5 I5 J0
G03 X45 Y0 I5 J0

; 33.0

G00 X5 Y0 Z33.0
G03 X10 Y5 I0 J5
G03 X10 Y5 I-5 J0

G00 X21.15 Y5 Z33.0
G02 X21.15 Y5 I3.8499999999999996 J0
G02 X28.85 Y5 I3.8499999999999996 J0

G00 X40 Y5 Z33.0
G03 X40 Y5 I5 J0
G03 X45 Y0 I5 J0

; 33.5

G00 X5 Y0 Z33.5
G03 X10 Y5 I0 J5
G03 X10 Y5 I-5 J0

G00 X21.175 Y5 Z33.5
G02 X21.175 Y5 I3.825 J0
G02 X28.825 Y5 I3.825 J0

G00 X40 Y5 Z33.5
G03 X40 Y5 I5 J0
G03 X45 Y0 I5 J0

; 34.0

G00 X5 Y0 Z34.0
G03 X10 Y5 I0 J5
G03 X10 Y5 I-5 J0

G00 X21.2 Y5 Z34.0
G02 X21.2 Y5 I3.8 J0
G02 X28.8 Y5 I3.8 J0

G00 X40 Y5 Z34.0
G03 X40 Y5 I5 J0
G03 X45 Y0 I5 J0

; 34.5

G00 X5 Y0 Z34.5
G03 X10 Y5 I0 J5
G03 X10 Y5 I-5 J0

G00 X21.225 Y5 Z34.5
G02 X21.225 Y5 I3.775 J0
G02 X28.775 Y5 I3.775 J0

G00 X40 Y5 Z34.5
G03 X40 Y5 I5 J0
G03 X45 Y0 I5 J0

; 35.0

G00 X5 Y0 Z35.0
G03 X10 Y5 I0 J5
G03 X10 Y5 I-5 J0

G00 X21.25 Y5 Z35.0
G02 X21.25 Y5 I3.75 J0
G02 X28.75 Y5 I3.75 J0

G00 X40 Y5 Z35.0
G03 X40 Y5 I5 J0
G03 X45 Y0 I5 J0

; 35.5

G00 X5 Y0 Z35.5
G03 X10 Y5 I0 J5
G03 X10 Y5 I-5 J0

G00 X21.275 Y5 Z35.5
G02 X21.275 Y5 I3.725 J0
G02 X28.725 Y5 I3.725 J0

G00 X40 Y5 Z35.5
G03 X40 Y5 I5 J0
G03 X45 Y0 I5 J0

; 36.0

G00 X5 Y0 Z36.0
G03 X10 Y5 I0 J5
G03 X10 Y5 I-5 J0

G00 X21.3 Y5 Z36.0
G02 X21.3 Y5 I3.7 J0
G02 X28.7 Y5 I3.7 J0

G00 X40 Y5 Z36.0
G03 X40 Y5 I5 J0
G03 X45 Y0 I5 J0

; 36.5

G00 X5 Y0 Z36.5
G03 X10 Y5 I0 J5
G03 X10 Y5 I-5 J0

G00 X21.325 Y5 Z36.5
G02 X21.325 Y5 I3.675 J0
G02 X28.675 Y5 I3.675 J0

G00 X40 Y5 Z36.5
G03 X40 Y5 I5 J0
G03 X45 Y0 I5 J0

; 37.0

G00 X5 Y0 Z37.0
G03 X10 Y5 I0 J5
G03 X10 Y5 I-5 J0

G00 X21.35 Y5 Z37.0
G02 X21.35 Y5 I3.65 J0
G02 X28.65 Y5 I3.65 J0

G00 X40 Y5 Z37.0
G03 X40 Y5 I5 J0
G03 X45 Y0 I5 J0

; 37.5

G00 X5 Y0 Z37.5
G03 X10 Y5 I0 J5
G03 X10 Y5 I-5 J0

G00 X21.375 Y5 Z37.5
G02 X21.375 Y5 I3.625 J0
G02 X28.625 Y5 I3.625 J0

G00 X40 Y5 Z37.5
G03 X40 Y5 I5 J0
G03 X45 Y0 I5 J0

; 38.0

G00 X5 Y0 Z38.0
G03 X10 Y5 I0 J5
G03 X10 Y5 I-5 J0

G00 X21.4 Y5 Z38.0
G02 X21.4 Y5 I3.5999999999999996 J0
G02 X28.6 Y5 I3.5999999999999996 J0

G00 X40 Y5 Z38.0
G03 X40 Y5 I5 J0
G03 X45 Y0 I5 J0

; 38.5

G00 X5 Y0 Z38.5
G03 X10 Y5 I0 J5
G03 X10 Y5 I-5 J0

G00 X21.425 Y5 Z38.5
G02 X21.425 Y5 I3.575 J0
G02 X28.575 Y5 I3.575 J0

G00 X40 Y5 Z38.5
G03 X40 Y5 I5 J0
G03 X45 Y0 I5 J0

; 39.0

G00 X5 Y0 Z39.0
G03 X10 Y5 I0 J5
G03 X10 Y5 I-5 J0

G00 X21.45 Y5 Z39.0
G02 X21.45 Y5 I3.55 J0
G02 X28.55 Y5 I3.55 J0

G00 X40 Y5 Z39.0
G03 X40 Y5 I5 J0
G03 X45 Y0 I5 J0

; 39.5

G00 X5 Y0 Z39.5
G03 X10 Y5 I0 J5
G03 X10 Y5 I-5 J0

G00 X21.475 Y5 Z39.5
G02 X21.475 Y5 I3.5250000000000004 J0
G02 X28.525 Y5 I3.5250000000000004 J0

G00 X40 Y5 Z39.5
G03 X40 Y5 I5 J0
G03 X45 Y0 I5 J0

; 40.0

G00 X5 Y0 Z40.0
G03 X10 Y5 I0 J5
G03 X10 Y5 I-5 J0

G00 X21.5 Y5 Z40.0
G02 X21.5 Y5 I3.5 J0
G02 X28.5 Y5 I3.5 J0

G00 X40 Y5 Z40.0
G03 X40 Y5 I5 J0
G03 X45 Y0 I5 J0

; 40.5

G00 X5 Y0 Z40.5
G03 X10 Y5 I0 J5
G03 X10 Y5 I-5 J0

G00 X21.525 Y5 Z40.5
G02 X21.525 Y5 I3.475 J0
G02 X28.475 Y5 I3.475 J0

G00 X40 Y5 Z40.5
G03 X40 Y5 I5 J0
G03 X45 Y0 I5 J0

; 41.0

G00 X5 Y0 Z41.0
G03 X10 Y5 I0 J5
G03 X10 Y5 I-5 J0

G00 X21.55 Y5 Z41.0
G02 X21.55 Y5 I3.45 J0
G02 X28.45 Y5 I3.45 J0

G00 X40 Y5 Z41.0
G03 X40 Y5 I5 J0
G03 X45 Y0 I5 J0

; 41.5

G00 X5 Y0 Z41.5
G03 X10 Y5 I0 J5
G03 X10 Y5 I-5 J0

G00 X21.575 Y5 Z41.5
G02 X21.575 Y5 I3.425 J0
G02 X28.425 Y5 I3.425 J0

G00 X40 Y5 Z41.5
G03 X40 Y5 I5 J0
G03 X45 Y0 I5 J0

; 42.0

G00 X5 Y0 Z42.0
G03 X10 Y5 I0 J5
G03 X10 Y5 I-5 J0

G00 X21.6 Y5 Z42.0
G02 X21.6 Y5 I3.4 J0
G02 X28.4 Y5 I3.4 J0

G00 X40 Y5 Z42.0
G03 X40 Y5 I5 J0
G03 X45 Y0 I5 J0

; 42.5

G00 X5 Y0 Z42.5
G03 X10 Y5 I0 J5
G03 X10 Y5 I-5 J0

G00 X21.625 Y5 Z42.5
G02 X21.625 Y5 I3.375 J0
G02 X28.375 Y5 I3.375 J0

G00 X40 Y5 Z42.5
G03 X40 Y5 I5 J0
G03 X45 Y0 I5 J0

; 43.0

G00 X5 Y0 Z43.0
G03 X10 Y5 I0 J5
G03 X10 Y5 I-5 J0

G00 X21.65 Y5 Z43.0
G02 X21.65 Y5 I3.3499999999999996 J0
G02 X28.35 Y5 I3.3499999999999996 J0

G00 X40 Y5 Z43.0
G03 X40 Y5 I5 J0
G03 X45 Y0 I5 J0

; 43.5

G00 X5 Y0 Z43.5
G03 X10 Y5 I0 J5
G03 X10 Y5 I-5 J0

G00 X21.675 Y5 Z43.5
G02 X21.675 Y5 I3.325 J0
G02 X28.325 Y5 I3.325 J0

G00 X40 Y5 Z43.5
G03 X40 Y5 I5 J0
G03 X45 Y0 I5 J0

; 44.0

G00 X5 Y0 Z44.0
G03 X10 Y5 I0 J5
G03 X10 Y5 I-5 J0

G00 X21.7 Y5 Z44.0
G02 X21.7 Y5 I3.3 J0
G02 X28.3 Y5 I3.3 J0

G00 X40 Y5 Z44.0
G03 X40 Y5 I5 J0
G03 X45 Y0 I5 J0

; 44.5

G00 X5 Y0 Z44.5
G03 X10 Y5 I0 J5
G03 X10 Y5 I-5 J0

G00 X21.725 Y5 Z44.5
G02 X21.725 Y5 I3.2750000000000004 J0
G02 X28.275 Y5 I3.2750000000000004 J0

G00 X40 Y5 Z44.5
G03 X40 Y5 I5 J0
G03 X45 Y0 I5 J0

; 45.0

G00 X5 Y0 Z45.0
G03 X10 Y5 I0 J5
G03 X10 Y5 I-5 J0

G00 X21.75 Y5 Z45.0
G02 X21.75 Y5 I3.25 J0
G02 X28.25 Y5 I3.25 J0

G00 X40 Y5 Z45.0
G03 X40 Y5 I5 J0
G03 X45 Y0 I5 J0

; 45.5

G00 X5 Y0 Z45.5
G03 X10 Y5 I0 J5
G03 X10 Y5 I-5 J0

G00 X21.775 Y5 Z45.5
G02 X21.775 Y5 I3.225 J0
G02 X28.225 Y5 I3.225 J0

G00 X40 Y5 Z45.5
G03 X40 Y5 I5 J0
G03 X45 Y0 I5 J0

; 46.0

G00 X5 Y0 Z46.0
G03 X10 Y5 I0 J5
G03 X10 Y5 I-5 J0

G00 X21.8 Y5 Z46.0
G02 X21.8 Y5 I3.2 J0
G02 X28.2 Y5 I3.2 J0

G00 X40 Y5 Z46.0
G03 X40 Y5 I5 J0
G03 X45 Y0 I5 J0

; 46.5

G00 X5 Y0 Z46.5
G03 X10 Y5 I0 J5
G03 X10 Y5 I-5 J0

G00 X21.825 Y5 Z46.5
G02 X21.825 Y5 I3.175 J0
G02 X28.175 Y5 I3.175 J0

G00 X40 Y5 Z46.5
G03 X40 Y5 I5 J0
G03 X45 Y0 I5 J0

; 47.0

G00 X5 Y0 Z47.0
G03 X10 Y5 I0 J5
G03 X10 Y5 I-5 J0

G00 X21.85 Y5 Z47.0
G02 X21.85 Y5 I3.15 J0
G02 X28.15 Y5 I3.15 J0

G00 X40 Y5 Z47.0
G03 X40 Y5 I5 J0
G03 X45 Y0 I5 J0

; 47.5

G00 X5 Y0 Z47.5
G03 X10 Y5 I0 J5
G03 X10 Y5 I-5 J0

G00 X21.875 Y5 Z47.5
G02 X21.875 Y5 I3.125 J0
G02 X28.125 Y5 I3.125 J0

G00 X40 Y5 Z47.5
G03 X40 Y5 I5 J0
G03 X45 Y0 I5 J0

; 48.0

G00 X5 Y0 Z48.0
G03 X10 Y5 I0 J5
G03 X10 Y5 I-5 J0

G00 X21.9 Y5 Z48.0
G02 X21.9 Y5 I3.1 J0
G02 X28.1 Y5 I3.1 J0

G00 X40 Y5 Z48.0
G03 X40 Y5 I5 J0
G03 X45 Y0 I5 J0

; 48.5

G00 X5 Y0 Z48.5
G03 X10 Y5 I0 J5
G03 X10 Y5 I-5 J0

G00 X21.925 Y5 Z48.5
G02 X21.925 Y5 I3.075 J0
G02 X28.075 Y5 I3.075 J0

G00 X40 Y5 Z48.5
G03 X40 Y5 I5 J0
G03 X45 Y0 I5 J0

; 49.0

G00 X5 Y0 Z49.0
G03 X10 Y5 I0 J5
G03 X10 Y5 I-5 J0

G00 X21.95 Y5 Z49.0
G02 X21.95 Y5 I3.05 J0
G02 X28.05 Y5 I3.05 J0

G00 X40 Y5 Z49.0
G03 X40 Y5 I5 J0
G03 X45 Y0 I5 J0

; 49.5

G00 X5 Y0 Z49.5
G03 X10 Y5 I0 J5
G03 X10 Y5 I-5 J0

G00 X21.975 Y5 Z49.5
G02 X21.975 Y5 I3.025 J0
G02 X28.025 Y5 I3.025 J0

G00 X40 Y5 Z49.5
G03 X40 Y5 I5 J0
G03 X45 Y0 I5 J0

; 50.0

G00 X5 Y0 Z50.0
G03 X10 Y5 I0 J5
G03 X10 Y5 I-5 J0

G00 X22.0 Y5 Z50.0
G02 X22.0 Y5 I3.0 J0
G02 X28.0 Y5 I3.0 J0

G00 X40 Y5 Z50.0
G03 X40 Y5 I5 J0
G03 X45 Y0 I5 J0

; 50.5

G00 X5 Y0 Z50.5
G03 X10 Y5 I0 J5
G03 X10 Y5 I-5 J0

G00 X22.025 Y5 Z50.5
G02 X22.025 Y5 I2.9749999999999996 J0
G02 X27.975 Y5 I2.9749999999999996 J0

G00 X40 Y5 Z50.5
G03 X40 Y5 I5 J0
G03 X45 Y0 I5 J0

; 51.0

G00 X5 Y0 Z51.0
G03 X10 Y5 I0 J5
G03 X10 Y5 I-5 J0

G00 X22.05 Y5 Z51.0
G02 X22.05 Y5 I2.95 J0
G02 X27.95 Y5 I2.95 J0

G00 X40 Y5 Z51.0
G03 X40 Y5 I5 J0
G03 X45 Y0 I5 J0

; 51.5

G00 X5 Y0 Z51.5
G03 X10 Y5 I0 J5
G03 X10 Y5 I-5 J0

G00 X22.075 Y5 Z51.5
G02 X22.075 Y5 I2.9250000000000003 J0
G02 X27.925 Y5 I2.9250000000000003 J0

G00 X40 Y5 Z51.5
G03 X40 Y5 I5 J0
G03 X45 Y0 I5 J0

; 52.0

G00 X5 Y0 Z52.0
G03 X10 Y5 I0 J5
G03 X10 Y5 I-5 J0

G00 X22.1 Y5 Z52.0
G02 X22.1 Y5 I2.9 J0
G02 X27.9 Y5 I2.9 J0

G00 X40 Y5 Z52.0
G03 X40 Y5 I5 J0
G03 X45 Y0 I5 J0

; 52.5

G00 X5 Y0 Z52.5
G03 X10 Y5 I0 J5
G03 X10 Y5 I-5 J0

G00 X22.125 Y5 Z52.5
G02 X22.125 Y5 I2.875 J0
G02 X27.875 Y5 I2.875 J0

G00 X40 Y5 Z52.5
G03 X40 Y5 I5 J0
G03 X45 Y0 I5 J0

; 53.0

G00 X5 Y0 Z53.0
G03 X10 Y5 I0 J5
G03 X10 Y5 I-5 J0

G00 X22.15 Y5 Z53.0
G02 X22.15 Y5 I2.85 J0
G02 X27.85 Y5 I2.85 J0

G00 X40 Y5 Z53.0
G03 X40 Y5 I5 J0
G03 X45 Y0 I5 J0

; 53.5

G00 X5 Y0 Z53.5
G03 X10 Y5 I0 J5
G03 X10 Y5 I-5 J0

G00 X22.175 Y5 Z53.5
G02 X22.175 Y5 I2.825 J0
G02 X27.825 Y5 I2.825 J0

G00 X40 Y5 Z53.5
G03 X40 Y5 I5 J0
G03 X45 Y0 I5 J0

; 54.0

G00 X5 Y0 Z54.0
G03 X10 Y5 I0 J5
G03 X10 Y5 I-5 J0

G00 X22.2 Y5 Z54.0
G02 X22.2 Y5 I2.8 J0
G02 X27.8 Y5 I2.8 J0

G00 X40 Y5 Z54.0
G03 X40 Y5 I5 J0
G03 X45 Y0 I5 J0

; 54.5

G00 X5 Y0 Z54.5
G03 X10 Y5 I0 J5
G03 X10 Y5 I-5 J0

G00 X22.225 Y5 Z54.5
G02 X22.225 Y5 I2.775 J0
G02 X27.775 Y5 I2.775 J0

G00 X40 Y5 Z54.5
G03 X40 Y5 I5 J0
G03 X45 Y0 I5 J0

; 55.0

G00 X5 Y0 Z55.0
G03 X10 Y5 I0 J5
G03 X10 Y5 I-5 J0

G00 X22.25 Y5 Z55.0
G02 X22.25 Y5 I2.75 J0
G02 X27.75 Y5 I2.75 J0

G00 X40 Y5 Z55.0
G03 X40 Y5 I5 J0
G03 X45 Y0 I5 J0

; 55.5

G00 X5 Y0 Z55.5
G03 X10 Y5 I0 J5
G03 X10 Y5 I-5 J0

G00 X22.275 Y5 Z55.5
G02 X22.275 Y5 I2.725 J0
G02 X27.725 Y5 I2.725 J0

G00 X40 Y5 Z55.5
G03 X40 Y5 I5 J0
G03 X45 Y0 I5 J0

; 56.0

G00 X5 Y0 Z56.0
G03 X10 Y5 I0 J5
G03 X10 Y5 I-5 J0

G00 X22.3 Y5 Z56.0
G02 X22.3 Y5 I2.6999999999999997 J0
G02 X27.7 Y5 I2.6999999999999997 J0

G00 X40 Y5 Z56.0
G03 X40 Y5 I5 J0
G03 X45 Y0 I5 J0

; 56.5

G00 X5 Y0 Z56.5
G03 X10 Y5 I0 J5
G03 X10 Y5 I-5 J0

G00 X22.325 Y5 Z56.5
G02 X22.325 Y5 I2.675 J0
G02 X27.675 Y5 I2.675 J0

G00 X40 Y5 Z56.5
G03 X40 Y5 I5 J0
G03 X45 Y0 I5 J0

; 57.0

G00 X5 Y0 Z57.0
G03 X10 Y5 I0 J5
G03 X10 Y5 I-5 J0

G00 X22.35 Y5 Z57.0
G02 X22.35 Y5 I2.6500000000000004 J0
G02 X27.65 Y5 I2.6500000000000004 J0

G00 X40 Y5 Z57.0
G03 X40 Y5 I5 J0
G03 X45 Y0 I5 J0

; 57.5

G00 X5 Y0 Z57.5
G03 X10 Y5 I0 J5
G03 X10 Y5 I-5 J0

G00 X22.375 Y5 Z57.5
G02 X22.375 Y5 I2.625 J0
G02 X27.625 Y5 I2.625 J0

G00 X40 Y5 Z57.5
G03 X40 Y5 I5 J0
G03 X45 Y0 I5 J0

; 58.0

G00 X5 Y0 Z58.0
G03 X10 Y5 I0 J5
G03 X10 Y5 I-5 J0

G00 X22.4 Y5 Z58.0
G02 X22.4 Y5 I2.6 J0
G02 X27.6 Y5 I2.6 J0

G00 X40 Y5 Z58.0
G03 X40 Y5 I5 J0
G03 X45 Y0 I5 J0

; 58.5

G00 X5 Y0 Z58.5
G03 X10 Y5 I0 J5
G03 X10 Y5 I-5 J0

G00 X22.425 Y5 Z58.5
G02 X22.425 Y5 I2.575 J0
G02 X27.575 Y5 I2.575 J0

G00 X40 Y5 Z58.5
G03 X40 Y5 I5 J0
G03 X45 Y0 I5 J0

; 59.0

G00 X5 Y0 Z59.0
G03 X10 Y5 I0 J5
G03 X10 Y5 I-5 J0

G00 X22.45 Y5 Z59.0
G02 X22.45 Y5 I2.55 J0
G02 X27.55 Y5 I2.55 J0

G00 X40 Y5 Z59.0
G03 X40 Y5 I5 J0
G03 X45 Y0 I5 J0

; 59.5

G00 X5 Y0 Z59.5
G03 X10 Y5 I0 J5
G03 X10 Y5 I-5 J0

G00 X22.475 Y5 Z59.5
G02 X22.475 Y5 I2.525 J0
G02 X27.525 Y5 I2.525 J0

G00 X40 Y5 Z59.5
G03 X40 Y5 I5 J0
G03 X45 Y0 I5 J0

; 60.0

G00 X5 Y0 Z60.0
G03 X10 Y5 I0 J5
G03 X10 Y5 I-5 J0

G00 X22.5 Y5 Z60.0
G02 X22.5 Y5 I2.5 J0
G02 X27.5 Y5 I2.5 J0

G00 X40 Y5 Z60.0
G03 X40 Y5 I5 J0
G03 X45 Y0 I5 J0

; Printing figures lid

G00 X45.0 Y5 Z60
G03 X45.0 Y5 I0.0 J0

G00 X44.5 Y5 Z60
G03 X44.5 Y5 I0.5 J0

G00 X44.0 Y5 Z60
G03 X44.0 Y5 I1.0 J0

G00 X43.5 Y5 Z60
G03 X43.5 Y5 I1.5 J0

G00 X43.0 Y5 Z60
G03 X43.0 Y5 I2.0 J0

G00 X42.5 Y5 Z60
G03 X42.5 Y5 I2.5 J0

G00 X42.0 Y5 Z60
G03 X42.0 Y5 I3.0 J0

G00 X41.5 Y5 Z60
G03 X41.5 Y5 I3.5 J0

G00 X41.0 Y5 Z60
G03 X41.0 Y5 I4.0 J0

G00 X40.5 Y5 Z60
G03 X40.5 Y5 I4.5 J0

G00 X25.0 Y5 Z60
G02 X25.0 Y5 I0.0 J0

G00 X24.5 Y5 Z60
G02 X24.5 Y5 I0.5 J0

G00 X24.0 Y5 Z60
G02 X24.0 Y5 I1.0 J0

G00 X23.5 Y5 Z60
G02 X23.5 Y5 I1.5 J0

G00 X23.0 Y5 Z60
G02 X23.0 Y5 I2.0 J0

G00 X5.0 Y5 Z60
G03 X5.0 Y5 I-0.0 J0

G00 X5.5 Y5 Z60
G03 X5.5 Y5 I-0.5 J0

G00 X6.0 Y5 Z60
G03 X6.0 Y5 I-1.0 J0

G00 X6.5 Y5 Z60
G03 X6.5 Y5 I-1.5 J0

G00 X7.0 Y5 Z60
G03 X7.0 Y5 I-2.0 J0

G00 X7.5 Y5 Z60
G03 X7.5 Y5 I-2.5 J0

G00 X8.0 Y5 Z60
G03 X8.0 Y5 I-3.0 J0

G00 X8.5 Y5 Z60
G03 X8.5 Y5 I-3.5 J0

G00 X9.0 Y5 Z60
G03 X9.0 Y5 I-4.0 J0

G00 X9.5 Y5 Z60
G03 X9.5 Y5 I-4.5 J0

